src/assets/img/question.svg

<!-- Generated by IcoMoon.io -->
<svg version="1.1" xmlns="http://www.w3.org/2000/svg" width="32" height="32" viewBox="0 0 32 32">
<title>question</title>
<path fill="#fff" d="M14 22h4v4h-4zM22 8c1.105 0 2 0.895 2 2v6l-6 4h-4v-2l6-4v-2h-10v-4h12zM16 3c-3.472 0-6.737 1.352-9.192 3.808s-3.808 5.72-3.808 9.192c0 3.472 1.352 6.737 3.808 9.192s5.72 3.808 9.192 3.808c3.472 0 6.737-1.352 9.192-3.808s3.808-5.72 3.808-9.192c0-3.472-1.352-6.737-3.808-9.192s-5.72-3.808-9.192-3.808zM16 0v0c8.837 0 16 7.163 16 16s-7.163 16-16 16c-8.837 0-16-7.163-16-16s7.163-16 16-16z"></path>
</svg>

<svg xmlns="http://www.w3.org/2000/svg" width="32" height="32"><path fill="#fff" d="M14 22h4v4h-4zm8-14a2 2 0 0 1 2 2v6l-6 4h-4v-2l6-4v-2H10V8h12zm-6-5c-3.472 0-6.737 1.352-9.192 3.808S3 12.528 3 16c0 3.472 1.352 6.737 3.808 9.192S12.528 29 16 29c3.472 0 6.737-1.352 9.192-3.808S29 19.472 29 16c0-3.472-1.352-6.737-3.808-9.192S19.472 3 16 3zm0-3c8.837 0 16 7.163 16 16s-7.163 16-16 16S0 24.837 0 16 7.163 0 16 0z"/></svg>
